src/assets/duotone/NoteRemove.svg

<svg width="24" height="24" viewBox="0 0 24 24"  xmlns="http://www.w3.org/2000/svg">
<path d="M5.97 1H3.03C1.76 1 1 1.76 1 3.03V5.97C1 7.24 1.76 8 3.03 8H5.97C7.24 8 8 7.24 8 5.97V3.03C8 1.76 7.24 1 5.97 1ZM6.47 5.56C6.72 5.81 6.72 6.22 6.47 6.47C6.34 6.59 6.17 6.65 6.01 6.65C5.85 6.65 5.69 6.59 5.56 6.47L4.49 5.41L3.45 6.47C3.32 6.59 3.16 6.65 2.98 6.65C2.82 6.65 2.66 6.59 2.53 6.47C2.28 6.22 2.28 5.81 2.53 5.56L3.6 4.5L2.54 3.45C2.29 3.2 2.29 2.79 2.54 2.54C2.79 2.29 3.2 2.29 3.45 2.54L4.49 3.6L5.55 2.54C5.8 2.29 6.21 2.29 6.46 2.54C6.71 2.79 6.71 3.2 6.46 3.45L5.41 4.5L6.47 5.56Z" />
<path opacity="0.4" d="M16.63 2H7.78C7.92 2.29 8 2.63 8 3.03V5.97C8 7.24 7.24 8 5.97 8H3.03C2.84 8 2.67 7.98 2.5 7.94V17.13C2.5 19.82 4.68 22 7.37 22H15.34C15.51 22 15.68 21.94 15.81 21.8C17.29 20.31 19.87 17.71 21.32 16.25C21.45 16.12 21.5 15.97 21.5 15.82V6.87C21.5 4.18 19.32 2 16.63 2Z" />
<path d="M21.4999 15.8197C21.4999 15.9697 21.4499 16.1197 21.3199 16.2497C19.8699 17.7097 17.2899 20.3097 15.8099 21.7997C15.6799 21.9397 15.5099 21.9997 15.3399 21.9997C15.0099 21.9997 14.6899 21.7397 14.6899 21.3597V17.8597C14.6899 16.3997 15.9299 15.1897 17.4499 15.1897C18.3999 15.1797 19.7199 15.1797 20.8499 15.1797C21.2399 15.1797 21.4999 15.4897 21.4999 15.8197Z" />
<path d="M14.7799 12.71H7.35986C6.93986 12.71 6.60986 12.37 6.60986 11.96C6.60986 11.55 6.94986 11.21 7.35986 11.21H14.7799C15.1999 11.21 15.5299 11.55 15.5299 11.96C15.5299 12.37 15.1999 12.71 14.7799 12.71Z" />
<path d="M11.9999 16.4199H7.35986C6.93986 16.4199 6.60986 16.0799 6.60986 15.6699C6.60986 15.2499 6.94986 14.9199 7.35986 14.9199H11.9999C12.4199 14.9199 12.7499 15.2599 12.7499 15.6699C12.7499 16.0799 12.4199 16.4199 11.9999 16.4199Z" />
</svg>

<?xml version="1.0" encoding="UTF-8"?>
<svg width="24" height="24" viewBox="0 0 24 24" xmlns="http://www.w3.org/2000/svg">
 <path d="m5.97 1h-2.94c-1.27 0-2.03 0.76-2.03 2.03v2.94c0 1.27 0.76 2.03 2.03 2.03h2.94c1.27 0 2.03-0.76 2.03-2.03v-2.94c0-1.27-0.76-2.03-2.03-2.03zm0.5 4.56c0.25 0.25 0.25 0.66 0 0.91-0.13 0.12-0.3 0.18-0.46 0.18s-0.32-0.06-0.45-0.18l-1.07-1.06-1.04 1.06c-0.13 0.12-0.29 0.18-0.47 0.18-0.16 0-0.32-0.06-0.45-0.18-0.25-0.25-0.25-0.66 0-0.91l1.07-1.06-1.06-1.05c-0.25-0.25-0.25-0.66 0-0.91s0.66-0.25 0.91 0l1.04 1.06 1.06-1.06c0.25-0.25 0.66-0.25 0.91 0s0.25 0.66 0 0.91l-1.05 1.05 1.06 1.06z"/>
 <path d="M16.63 2H7.78C7.92 2.29 8 2.63 8 3.03V5.97C8 7.24 7.24 8 5.97 8H3.03C2.84 8 2.67 7.98 2.5 7.94V17.13C2.5 19.82 4.68 22 7.37 22H15.34C15.51 22 15.68 21.94 15.81 21.8C17.29 20.31 19.87 17.71 21.32 16.25C21.45 16.12 21.5 15.97 21.5 15.82V6.87C21.5 4.18 19.32 2 16.63 2Z" opacity=".4"/>
 <path d="m21.5 15.82c0 0.15-0.05 0.3-0.18 0.43-1.45 1.46-4.03 4.06-5.51 5.55-0.13 0.14-0.3 0.2-0.47 0.2-0.33 0-0.65-0.26-0.65-0.64v-3.5c0-1.46 1.24-2.67 2.76-2.67 0.95-0.01 2.27-0.01 3.4-0.01 0.39 0 0.65 0.31 0.65 0.64z"/>
 <path d="m14.78 12.71h-7.42c-0.42 0-0.75-0.34-0.75-0.75s0.34-0.75 0.75-0.75h7.42c0.42 0 0.75 0.34 0.75 0.75s-0.33 0.75-0.75 0.75z"/>
 <path d="m12 16.42h-4.64c-0.42 0-0.75-0.34-0.75-0.75 0-0.42 0.34-0.75 0.75-0.75h4.64c0.42 0 0.75 0.34 0.75 0.75s-0.33 0.75-0.75 0.75z"/>
</svg>
